icons/binance.svg

<svg fill="#f3ba2f" viewBox="0 0 126.611 126.611" xmlns="http://www.w3.org/2000/svg"><path d="m38.171 53.203 24.588-24.587 24.601 24.6 14.307-14.307-38.908-38.909-38.895 38.896z"/><path d="m13.76 48.997 14.307 14.306-14.307 14.308-14.307-14.307z"/><path d="m38.171 73.408 24.588 24.587 24.6-24.599 14.315 14.299-.007.008-38.908 38.908-38.896-38.895-.02-.02z"/><path d="m126.066 63.31-14.306 14.307-14.308-14.306 14.307-14.308z"/><path d="m77.271 63.298h.006l-14.518-14.518-10.729 10.729h-.001l-1.232 1.233-2.543 2.543-.02.02.02.021 14.505 14.505 14.518-14.518.007-.008z"/></svg>

<svg xmlns="http://www.w3.org/2000/svg" fill="#f3ba2f" viewBox="0 0 126.611 126.611">
  <path d="m38.171 53.203 24.588-24.587 24.601 24.6 14.307-14.307L62.759 0 23.864 38.896z"/>
  <path d="m13.76 48.997 14.307 14.306L13.76 77.611-.547 63.304z"/>
  <path d="m38.171 73.408 24.588 24.587 24.6-24.599 14.315 14.299-.007.008-38.908 38.908-38.896-38.895-.02-.02z"/>
  <path d="M126.066 63.31 111.76 77.617 97.452 63.311l14.307-14.308z"/>
  <path d="M77.271 63.298h.006L62.759 48.78 52.03 59.509h-.001l-1.232 1.233-2.543 2.543-.02.02.02.021 14.505 14.505 14.518-14.518.007-.008z"/>
</svg>
